X:965
T: Duke's Retreat HP
S: B.Breathnach: "Ceol Rince na hEireann" II/313 (gan ainm)
Z: B.Black
L: 1/8
M: 4/4
R: hornpipe
K: Em
GA|BABG EFGA|B2 G2 G2 gf|efge dBAG|E2 A2 A2 GA|
BABG EFGA|BABd efge|dcBA GcBA|G2 E2 E2 ||
ef|g2 fe defg|a2 d2 d2 ef|gagf efga|b2 a2 a2 ga|
bagb a2 gf|edef g2 fe|dcBA GcBA|G2 E2 E2 ||





























